src/assets/images/swap-icon.svg

<svg width="19" height="14" viewBox="0 0 19 14" fill="none" xmlns="http://www.w3.org/2000/svg">
<path d="M0.666504 4.00658L3.87508 0.60791M3.87508 0.60791L7.08365 4.00658M3.87508 0.60791L3.87496 9.9544C3.87496 10.8557 4.21301 11.7202 4.81474 12.3576C5.41646 12.995 6.23258 13.353 7.08354 13.353H8.68783M18.3136 9.95427L15.1051 13.353M15.1051 13.353L11.8964 9.9544M15.1051 13.353V4.00667C15.1051 3.10529 14.767 2.24081 14.1653 1.60344C13.5635 0.966073 12.7475 0.607999 11.8966 0.607999H10.2922" stroke="#C0BAF7" stroke-width="1.2" stroke-linecap="round" stroke-linejoin="round"/>
</svg>

<svg xmlns="http://www.w3.org/2000/svg" width="19" height="14" fill="none">
  <path stroke="#C0BAF7" stroke-linecap="round" stroke-linejoin="round" stroke-width="1.2"
    d="m.667 4.007 3.208-3.4m0 0 3.209 3.4M3.875.607v9.347c0 .902.338 1.766.94 2.404a3.12 3.12 0 0 0 2.269.995h1.604m9.626-3.399-3.209 3.399m0 0-3.209-3.399m3.21 3.399V4.007c0-.902-.339-1.766-.94-2.404a3.12 3.12 0 0 0-2.27-.995h-1.604" />
</svg>
